X:237
T:Jack of Diamonds
C:
N:Transcribed by Tristan Scroggins Based on Benny Thomasson's version
R:bluegrass
L:1/8
Q:1/4=200
M:4/4
K:C
z6 (3e^f^g |: a2 e^c Ae cA | A,^C E^G A^c ec | dB zB B^c (3B{c}BA | ^GA B^c de ^f^g | 
a2 ^cB Ae cA | A,^C E^G AB ^cA | B^c de ^f^g af |1 e^c B^G A2 a^g :|2 e^c B^G A2 c2 | 
[e^c]e e^f ed cA | d^c ed ^fa ed | [e^c]e e^f ec Ac | {^c}BA ^G^F ED ^CB, | (3A,B,^C (3E^F^G AE A^c | 
B^F B^c d^f ec | ea ^ge ^fg af | e^c Be A4 | [E4^C4] [e4A4] | [^F4D4] [e4A4] | 
^CE C^F EC A,C | {C}B,_B, =B,^C DC =C^C | (3A,B,^C (3E^F^G AE A^c | B^F B^c d^f ec | 
ea ^ge ^fg af | e^c Be A4 | 


